packages/ui-icons/svg/Line/Arc.svg

<svg viewBox="0 0 1920 1920" version="1.1" xmlns="http://www.w3.org/2000/svg">
    <path d="M1142.27704,1243.13845 L777.213784,1243.13845 L777.213784,1590.3165 C843.331544,1613.45917 890.752197,1676.40107 890.752197,1750.41865 C890.752197,1844.07584 814.828042,1920 721.17085,1920 C627.513658,1920 551.589502,1844.07584 551.589502,1750.41865 C551.589502,1676.40107 599.010155,1613.45917 665.127916,1590.3165 L665.127916,1243.13845 L541.655579,1243.13845 L541.689247,1441.24547 C541.689247,1518.33991 479.191853,1580.8373 402.09741,1580.8373 L342.960786,1580.78862 C320.046924,1647.32281 256.896612,1695.12566 182.581348,1695.12566 C88.9241555,1695.12566 13,1619.2015 13,1525.54431 C13,1431.88712 88.9241555,1355.96296 182.581348,1355.96296 C256.288255,1355.96296 319.012258,1402.98637 342.389983,1468.66981 L403.85272,1468.66981 C418.054328,1468.66981 429.567006,1457.15713 429.567006,1442.95552 L429.567006,1243.13845 L183.114532,1243.13845 C150.653714,1243.13845 124.339021,1216.82376 124.339021,1184.36294 L124.339021,58.7755102 C124.339021,26.3146923 150.653714,0 183.114532,0 L1735.1347,0 C1767.59552,0 1793.91021,26.3146923 1793.91021,58.7755102 L1793.91021,1184.36294 C1793.91021,1216.82376 1767.59552,1243.13845 1735.1347,1243.13845 L1489.85675,1243.13845 L1489.85675,1442.95552 C1489.85675,1457.15713 1501.36943,1468.66981 1515.57103,1468.66981 L1577.03377,1468.66981 C1600.4115,1402.98637 1663.1355,1355.96296 1736.84241,1355.96296 C1830.4996,1355.96296 1906.42375,1431.88712 1906.42375,1525.54431 C1906.42375,1619.2015 1830.4996,1695.12566 1736.84241,1695.12566 C1662.52714,1695.12566 1599.37683,1647.32281 1576.46297,1580.78862 L1517.36272,1580.8373 C1440.2319,1580.8373 1377.73451,1518.33991 1377.73451,1441.24547 L1377.76817,1243.13845 L1254.36291,1243.13845 L1254.36291,1590.3165 C1320.48067,1613.45917 1367.90132,1676.40107 1367.90132,1750.41865 C1367.90132,1844.07584 1291.97717,1920 1198.31997,1920 C1104.66278,1920 1028.73863,1844.07584 1028.73863,1750.41865 C1028.73863,1676.40107 1076.15928,1613.45917 1142.27704,1590.3165 L1142.27704,1243.13845 Z M1199.67111,1806.04755 C1230.3941,1806.04755 1255.30001,1781.14164 1255.30001,1750.41865 C1255.30001,1719.69566 1230.3941,1694.78976 1199.67111,1694.78976 C1168.94812,1694.78976 1144.04222,1719.69566 1144.04222,1750.41865 C1144.04222,1781.14164 1168.94812,1806.04755 1199.67111,1806.04755 Z M722.52199,1806.04755 C753.244979,1806.04755 778.150884,1781.14164 778.150884,1750.41865 C778.150884,1719.69566 753.244979,1694.78976 722.52199,1694.78976 C691.799,1694.78976 666.893096,1719.69566 666.893096,1750.41865 C666.893096,1781.14164 691.799,1806.04755 722.52199,1806.04755 Z M1738.19355,1581.17321 C1768.91654,1581.17321 1793.82244,1556.2673 1793.82244,1525.54431 C1793.82244,1494.82132 1768.91654,1469.91542 1738.19355,1469.91542 C1707.47056,1469.91542 1682.56465,1494.82132 1682.56465,1525.54431 C1682.56465,1556.2673 1707.47056,1581.17321 1738.19355,1581.17321 Z M181.230208,1581.17321 C211.953198,1581.17321 236.859102,1556.2673 236.859102,1525.54431 C236.859102,1494.82132 211.953198,1469.91542 181.230208,1469.91542 C150.507218,1469.91542 125.601314,1494.82132 125.601314,1525.54431 C125.601314,1556.2673 150.507218,1581.17321 181.230208,1581.17321 Z M901.046855,348.664896 L1121.08185,480.46113 C1133.59009,489.628452 1141,504.337618 1141,520 C1141,535.662382 1133.59009,550.371548 1121.08185,559.53887 L901.046855,691.335104 C886.19456,700.041024 867.897012,700.046423 853.039735,691.349269 C838.182458,682.652115 829.019897,666.572114 829,649.160309 L829,390.839691 C829.019897,373.427886 838.182458,357.347885 853.039735,348.650731 C867.897012,339.953577 886.19456,339.958976 901.046855,348.664896 Z M1687.20211,933.333333 L1687.20211,136.054422 C1687.20211,119.824013 1674.04476,106.666667 1657.81435,106.666667 L260.434877,106.666667 C244.204468,106.666667 231.047122,119.824013 231.047122,136.054422 L231.047122,933.333333 L1687.20211,933.333333 Z M1687.20211,1040 L231.047122,1040 L231.047122,1107.09854 C231.047122,1123.32895 244.204468,1136.48629 260.434877,1136.48629 L1657.81435,1136.48629 C1674.04476,1136.48629 1687.20211,1123.32895 1687.20211,1107.09854 L1687.20211,1040 Z" stroke="none" stroke-width="1" fill-rule="evenodd"/>
</svg>

<svg viewBox="0 0 1920 1920" xmlns="http://www.w3.org/2000/svg">
    <path d="M1142.277 1243.138H777.214v347.178c66.118 23.143 113.538 86.085 113.538 160.103 0 93.657-75.924 169.581-169.581 169.581-93.657 0-169.581-75.924-169.581-169.581 0-74.018 47.42-136.96 113.538-160.103v-347.178H541.656l.033 198.107c0 77.095-62.497 139.592-139.592 139.592l-59.136-.048c-22.914 66.534-86.064 114.337-160.38 114.337C88.924 1695.126 13 1619.2 13 1525.544s75.924-169.581 169.581-169.581c73.707 0 136.431 47.023 159.809 112.707h61.463c14.201 0 25.714-11.513 25.714-25.714v-199.818H183.115c-32.461 0-58.776-26.314-58.776-58.775V58.776C124.339 26.315 150.654 0 183.115 0h1552.02c32.46 0 58.775 26.315 58.775 58.776v1125.587c0 32.46-26.314 58.775-58.775 58.775h-245.278v199.818c0 14.201 11.512 25.714 25.714 25.714h61.463c23.377-65.684 86.101-112.707 159.808-112.707 93.658 0 169.582 75.924 169.582 169.581 0 93.657-75.924 169.582-169.582 169.582-74.315 0-137.465-47.803-160.379-114.337l-59.1.048c-77.131 0-139.628-62.497-139.628-139.592l.033-198.107h-123.405v347.178c66.118 23.143 113.538 86.085 113.538 160.103 0 93.657-75.924 169.581-169.581 169.581-93.657 0-169.581-75.924-169.581-169.581 0-74.018 47.42-136.96 113.538-160.103v-347.178Zm57.394 562.91c30.723 0 55.629-24.906 55.629-55.63 0-30.722-24.906-55.628-55.629-55.628s-55.629 24.906-55.629 55.629 24.906 55.629 55.63 55.629Zm-477.149 0c30.723 0 55.629-24.906 55.629-55.63 0-30.722-24.906-55.628-55.629-55.628s-55.629 24.906-55.629 55.629 24.906 55.629 55.629 55.629Zm1015.672-224.875c30.723 0 55.628-24.906 55.628-55.629s-24.905-55.629-55.628-55.629-55.63 24.906-55.63 55.63c0 30.722 24.907 55.628 55.63 55.628Zm-1556.964 0c30.723 0 55.63-24.906 55.63-55.629s-24.907-55.629-55.63-55.629c-30.723 0-55.629 24.906-55.629 55.63 0 30.722 24.906 55.628 55.63 55.628ZM901.047 348.665l220.035 131.796C1133.59 489.628 1141 504.338 1141 520c0 15.662-7.41 30.372-19.918 39.539L901.047 691.335a47.406 47.406 0 0 1-48.007.014c-14.858-8.697-24.02-24.777-24.04-42.189V390.84c.02-17.412 9.182-33.492 24.04-42.19a47.406 47.406 0 0 1 48.007.015Zm786.155 584.668V136.054c0-16.23-13.157-29.387-29.388-29.387H260.434c-16.23 0-29.387 13.157-29.387 29.387v797.28h1456.155Zm0 106.667H231.047v67.099c0 16.23 13.157 29.387 29.388 29.387h1397.38c16.23 0 29.387-13.157 29.387-29.387V1040Z" fill-rule="evenodd"/>
</svg>
